app/assets/images/heroicon/outline/window.svg

<svg width="24" height="24" viewBox="0 0 24 24" fill="none" xmlns="http://www.w3.org/2000/svg">
<path d="M3 8.25V18C3 19.2426 4.00736 20.25 5.25 20.25H18.75C19.9926 20.25 21 19.2426 21 18V8.25M3 8.25V6C3 4.75736 4.00736 3.75 5.25 3.75H18.75C19.9926 3.75 21 4.75736 21 6V8.25M3 8.25H21M5.25 6H5.2575V6.0075H5.25V6ZM7.5 6H7.5075V6.0075H7.5V6ZM9.75 6H9.7575V6.0075H9.75V6Z" stroke="#0F172A" stroke-width="1.5" stroke-linecap="round" stroke-linejoin="round"/>
</svg>

<svg xmlns="http://www.w3.org/2000/svg" fill="none" viewBox="0 0 24 24" stroke-width="1.5" stroke="currentColor" aria-hidden="true">
  <path stroke-linecap="round" stroke-linejoin="round" d="M3 8.25V18a2.25 2.25 0 002.25 2.25h13.5A2.25 2.25 0 0021 18V8.25m-18 0V6a2.25 2.25 0 012.25-2.25h13.5A2.25 2.25 0 0121 6v2.25m-18 0h18M5.25 6h.008v.008H5.25V6zM7.5 6h.008v.008H7.5V6zm2.25 0h.008v.008H9.75V6z"/>
</svg>
